assets/images/Color-correction-without-mistakes/ballet.3DL
#Created by: Adobe Photoshop Export Color Lookup Plugin
#Description: Ballet1
0 341 682 1023
0 0 0
0 0 1365
0 0 2730
0 0 4095
3533 3533 3645
3485 3501 3629
3533 3533 3645
3485 3517 3645
3339 3374 3494
3395 3416 3546
3437 3444 3572
3409 3416 3546
0 4095 0
0 4095 1365
0 4095 2730
0 4095 4095
1365 0 0
1365 0 1365
1365 0 2730
1365 0 4095
3533 3533 3645
3533 3533 3645
3533 3533 3645
3549 3549 3677
3423 3458 3585
3451 3471 3585
3437 3444 3572
3395 3416 3546
1365 4095 0
1365 4095 1365
1365 4095 2730
1365 4095 4095
2730 0 0
2730 0 1365
2730 0 2730
2730 0 4095
3533 3549 3661
3533 3533 3661
3501 3533 3645
3533 3533 3661
3252 3260 3387
3437 3444 3572
3409 3430 3546
3423 3430 3559
2730 4095 0
2730 4095 1365
2730 4095 2730
2730 4095 4095
4095 0 0
4095 0 1365
4095 0 2730
4095 0 4095
3533 3533 3645
3533 3533 3645
3533 3533 3645
3501 3533 3645
3437 3444 3559
3423 3444 3559
3451 3458 3585
3409 3416 3546
4095 4095 0
4095 4095 1365
4095 4095 2730
4095 4095 4095
