assets/images/Color-correction-without-mistakes/ballet.3DL
#Created by: Adobe Photoshop Export Color Lookup Plugin
#Description: Ballet1
0 146 292 438 585 731 877 1023
0 0 0
0 0 585
0 0 1170
0 0 1755
0 0 2340
0 0 2925
0 0 3510
0 0 4095
0 585 0
0 585 585
0 585 1170
0 585 1755
0 585 2340
0 585 2925
0 585 3510
0 585 4095
0 1170 0
0 1170 585
0 1170 1170
0 1170 1755
0 1170 2340
0 1170 2925
0 1170 3510
0 1170 4095
835 642 626
851 642 642
771 610 610
899 771 755
1237 1092 1124
1044 915 883
899 739 771
691 514 562
3082 2868 2690
2942 2615 2378
2062 1574 1287
2611 2159 2036
2788 2314 2076
2531 2047 1894
2381 1922 1748
2401 1942 1768
0 2925 0
0 2925 585
0 2925 1170
0 2925 1755
0 2925 2340
0 2925 2925
0 2925 3510
0 2925 4095
0 3510 0
0 3510 585
0 3510 1170
0 3510 1755
0 3510 2340
0 3510 2925
0 3510 3510
0 3510 4095
0 4095 0
0 4095 585
0 4095 1170
0 4095 1755
0 4095 2340
0 4095 2925
0 4095 3510
0 4095 4095
585 0 0
585 0 585
585 0 1170
585 0 1755
585 0 2340
585 0 2925
585 0 3510
585 0 4095
585 585 0
585 585 585
585 585 1170
585 585 1755
585 585 2340
585 585 2925
585 585 3510
585 585 4095
585 1170 0
585 1170 585
585 1170 1170
585 1170 1755
585 1170 2340
585 1170 2925
585 1170 3510
585 1170 4095
691 514 498
883 691 739
948 771 739
1188 964 915
883 674 674
1028 835 835
1124 948 980
883 674 771
2571 1938 2153
1859 1533 1194
1703 1396 1056
1563 1192 1010
2764 2246 1996
2735 2259 2076
2577 2137 1955
2730 2225 2096
585 2925 0
585 2925 585
585 2925 1170
585 2925 1755
585 2925 2340
585 2925 2925
585 2925 3510
585 2925 4095
585 3510 0
585 3510 585
585 3510 1170
585 3510 1755
585 3510 2340
585 3510 2925
585 3510 3510
585 3510 4095
585 4095 0
585 4095 585
585 4095 1170
585 4095 1755
585 4095 2340
585 4095 2925
585 4095 3510
585 4095 4095
1170 0 0
1170 0 585
1170 0 1170
1170 0 1755
1170 0 2340
1170 0 2925
1170 0 3510
1170 0 4095
1170 585 0
1170 585 585
1170 585 1170
1170 585 1755
1170 585 2340
1170 585 2925
1170 585 3510
1170 585 4095
1170 1170 0
1170 1170 585
1170 1170 1170
1170 1170 1755
1170 1170 2340
1170 1170 2925
1170 1170 3510
1170 1170 4095
498 418 369
851 674 674
948 755 739
755 578 546
755 610 610
1124 948 1012
578 434 450
434 321 353
2995 2386 2325
3042 2425 2344
3077 2493 2343
2871 2373 2154
2748 2244 1996
2699 2221 2016
2766 2263 2095
2848 2306 2154
1170 2925 0
1170 2925 585
1170 2925 1170
1170 2925 1755
1170 2925 2340
1170 2925 2925
1170 2925 3510
1170 2925 4095
1170 3510 0
1170 3510 585
1170 3510 1170
1170 3510 1755
1170 3510 2340
1170 3510 2925
1170 3510 3510
1170 3510 4095
1170 4095 0
1170 4095 585
1170 4095 1170
1170 4095 1755
1170 4095 2340
1170 4095 2925
1170 4095 3510
1170 4095 4095
1755 0 0
1755 0 585
1755 0 1170
1755 0 1755
1755 0 2340
1755 0 2925
1755 0 3510
1755 0 4095
1755 585 0
1755 585 585
1755 585 1170
1755 585 1755
1755 585 2340
1755 585 2925
1755 585 3510
1755 585 4095
1755 1170 0
1755 1170 585
1755 1170 1170
1755 1170 1755
1755 1170 2340
1755 1170 2925
1755 1170 3510
1755 1170 4095
626 498 450
642 514 450
498 434 385
434 369 369
915 835 819
835 642 674
851 691 674
1044 883 915
3036 2519 2379
3097 2556 2398
3053 2551 2397
2788 2314 2134
2662 2183 1976
2869 2357 2154
2786 2298 2115
2794 2234 2096
1755 2925 0
1755 2925 585
1755 2925 1170
1755 2925 1755
1755 2925 2340
1755 2925 2925
1755 2925 3510
1755 2925 4095
1755 3510 0
1755 3510 585
1755 3510 1170
1755 3510 1755
1755 3510 2340
1755 3510 2925
1755 3510 3510
1755 3510 4095
1755 4095 0
1755 4095 585
1755 4095 1170
1755 4095 1755
1755 4095 2340
1755 4095 2925
1755 4095 3510
1755 4095 4095
2340 0 0
2340 0 585
2340 0 1170
2340 0 1755
2340 0 2340
2340 0 2925
2340 0 3510
2340 0 4095
2340 585 0
2340 585 585
2340 585 1170
2340 585 1755
2340 585 2340
2340 585 2925
2340 585 3510
2340 585 4095
2340 1170 0
2340 1170 585
2340 1170 1170
2340 1170 1755
2340 1170 2340
2340 1170 2925
2340 1170 3510
2340 1170 4095
691 578 562
707 578 578
1012 819 851
899 691 739
851 674 755
899 739 739
546 450 434
642 562 562
3086 2585 2379
3030 2610 2415
2807 2349 2173
2630 2178 1996
2735 2259 2056
2744 2211 2096
2623 2128 1996
2764 2246 2096
2340 2925 0
2340 2925 585
2340 2925 1170
2340 2925 1755
2340 2925 2340
2340 2925 2925
2340 2925 3510
2340 2925 4095
2340 3510 0
2340 3510 585
2340 3510 1170
2340 3510 1755
2340 3510 2340
2340 3510 2925
2340 3510 3510
2340 3510 4095
2340 4095 0
2340 4095 585
2340 4095 1170
2340 4095 1755
2340 4095 2340
2340 4095 2925
2340 4095 3510
2340 4095 4095
2925 0 0
2925 0 585
2925 0 1170
2925 0 1755
2925 0 2340
2925 0 2925
2925 0 3510
2925 0 4095
2925 585 0
2925 585 585
2925 585 1170
2925 585 1755
2925 585 2340
2925 585 2925
2925 585 3510
2925 585 4095
2925 1170 0
2925 1170 585
2925 1170 1170
2925 1170 1755
2925 1170 2340
2925 1170 2925
2925 1170 3510
2925 1170 4095
626 498 498
851 739 691
578 482 450
739 626 626
691 562 546
899 674 674
771 610 610
835 642 674
2832 2432 2287
2819 2446 2268
2597 2173 1975
2809 2365 2192
2737 2275 2095
2782 2265 2135
2852 2339 2212
2607 2125 1976
2925 2925 0
2925 2925 585
2925 2925 1170
2925 2925 1755
2925 2925 2340
2925 2925 2925
2925 2925 3510
2925 2925 4095
2925 3510 0
2925 3510 585
2925 3510 1170
2925 3510 1755
2925 3510 2340
2925 3510 2925
2925 3510 3510
2925 3510 4095
2925 4095 0
2925 4095 585
2925 4095 1170
2925 4095 1755
2925 4095 2340
2925 4095 2925
2925 4095 3510
2925 4095 4095
3510 0 0
3510 0 585
3510 0 1170
3510 0 1755
3510 0 2340
3510 0 2925
3510 0 3510
3510 0 4095
3510 585 0
3510 585 585
3510 585 1170
3510 585 1755
3510 585 2340
3510 585 2925
3510 585 3510
3510 585 4095
3510 1170 0
3510 1170 585
3510 1170 1170
3510 1170 1755
3510 1170 2340
3510 1170 2925
3510 1170 3510
3510 1170 4095
498 353 353
578 450 434
691 498 498
562 434 418
803 626 642
755 610 626
980 819 803
739 578 610
2885 2501 2360
2749 2373 2230
2880 2453 2249
2926 2459 2324
2873 2389 2250
2710 2190 2076
2869 2357 2250
2856 2371 2231
3510 2925 0
3510 2925 585
3510 2925 1170
3510 2925 1755
3510 2925 2340
3510 2925 2925
3510 2925 3510
3510 2925 4095
3510 3510 0
3510 3510 585
3510 3510 1170
3510 3510 1755
3510 3510 2340
3510 3510 2925
3510 3510 3510
3510 3510 4095
3510 4095 0
3510 4095 585
3510 4095 1170
3510 4095 1755
3510 4095 2340
3510 4095 2925
3510 4095 3510
3510 4095 4095
4095 0 0
4095 0 585
4095 0 1170
4095 0 1755
4095 0 2340
4095 0 2925
4095 0 3510
4095 0 4095
4095 585 0
4095 585 585
4095 585 1170
4095 585 1755
4095 585 2340
4095 585 2925
4095 585 3510
4095 585 4095
4095 1170 0
4095 1170 585
4095 1170 1170
4095 1170 1755
4095 1170 2340
4095 1170 2925
4095 1170 3510
4095 1170 4095
546 418 385
546 434 418
755 578 562
755 626 610
771 642 626
691 514 578
771 610 610
642 514 562
2643 2279 2153
2767 2392 2249
3075 2630 2469
2989 2498 2361
2922 2427 2287
2790 2331 2211
2664 2200 2095
2788 2314 2212
4095 2925 0
4095 2925 585
4095 2925 1170
4095 2925 1755
4095 2925 2340
4095 2925 2925
4095 2925 3510
4095 2925 4095
4095 3510 0
4095 3510 585
4095 3510 1170
4095 3510 1755
4095 3510 2340
4095 3510 2925
4095 3510 3510
4095 3510 4095
4095 4095 0
4095 4095 585
4095 4095 1170
4095 4095 1755
4095 4095 2340
4095 4095 2925
4095 4095 3510
4095 4095 4095
