assets/images/Color-correction-without-mistakes/ballet.3DL
#Created by: Adobe Photoshop Export Color Lookup Plugin
#Description: Ballet1
0 16 32 49 65 81 97 114 130 146 162 179 195 211 227 244 260 276 292 309 325 341 357 373 390 406 422 438 455 471 487 503 520 536 552 568 585 601 617 633 650 666 682 698 714 731 747 763 779 796 812 828 844 861 877 893 909 926 942 958 974 991 1007 1023
0 0 0
0 0 65
0 0 130
0 0 195
0 0 260
0 0 325
0 0 390
0 0 455
0 0 520
0 0 585
0 0 650
0 0 715
0 0 780
0 0 845
0 0 910
0 0 975
0 0 1040
0 0 1105
0 0 1170
0 0 1235
0 0 1300
0 0 1365
0 0 1430
0 0 1495
0 0 1560
0 0 1625
0 0 1690
0 0 1755
0 0 1820
0 0 1885
0 0 1950
0 0 2015
0 0 2080
0 0 2145
0 0 2210
0 0 2275
0 0 2340
0 0 2405
0 0 2470
0 0 2535
0 0 2600
0 0 2665
0 0 2730
0 0 2795
0 0 2860
0 0 2925
0 0 2990
0 0 3055
0 0 3120
0 0 3185
0 0 3250
0 0 3315
0 0 3380
0 0 3445
0 0 3510
0 0 3575
0 0 3640
0 0 3705
0 0 3770
0 0 3835
0 0 3900
0 0 3965
0 0 4030
0 0 4095
0 65 0
0 65 65
0 65 130
0 65 195
0 65 260
0 65 325
0 65 390
0 65 455
0 65 520
0 65 585
0 65 650
0 65 715
0 65 780
0 65 845
0 65 910
0 65 975
0 65 1040
0 65 1105
0 65 1170
0 65 1235
0 65 1300
0 65 1365
0 65 1430
0 65 1495
0 65 1560
0 65 1625
0 65 1690
0 65 1755
0 65 1820
0 65 1885
0 65 1950
0 65 2015
0 65 2080
0 65 2145
0 65 2210
0 65 2275
0 65 2340
0 65 2405
0 65 2470
0 65 2535
0 65 2600
0 65 2665
0 65 2730
0 65 2795
0 65 2860
0 65 2925
0 65 2990
0 65 3055
0 65 3120
0 65 3185
0 65 3250
0 65 3315
0 65 3380
0 65 3445
0 65 3510
0 65 3575
0 65 3640
0 65 3705
0 65 3770
0 65 3835
0 65 3900
0 65 3965
0 65 4030
0 65 4095
0 130 0
0 130 65
0 130 130
0 130 195
0 130 260
0 130 325
0 130 390
0 130 455
0 130 520
0 130 585
0 130 650
0 130 715
0 130 780
0 130 845
0 130 910
0 130 975
0 130 1040
0 130 1105
0 130 1170
0 130 1235
0 130 1300
0 130 1365
0 130 1430
0 130 1495
0 130 1560
0 130 1625
0 130 1690
0 130 1755
0 130 1820
0 130 1885
0 130 1950
0 130 2015
0 130 2080
0 130 2145
0 130 2210
0 130 2275
0 130 2340
0 130 2405
0 130 2470
0 130 2535
0 130 2600
0 130 2665
0 130 2730
0 130 2795
0 130 2860
0 130 2925
0 130 2990
0 130 3055
0 130 3120
0 130 3185
0 130 3250
0 130 3315
0 130 3380
0 130 3445
0 130 3510
0 130 3575
0 130 3640
0 130 3705
0 130 3770
0 130 3835
0 130 3900
0 130 3965
0 130 4030
0 130 4095
0 195 0
0 195 65
0 195 130
0 195 195
0 195 260
0 195 325
0 195 390
0 195 455
0 195 520
0 195 585
0 195 650
0 195 715
0 195 780
0 195 845
0 195 910
0 195 975
0 195 1040
0 195 1105
0 195 1170
0 195 1235
0 195 1300
0 195 1365
0 195 1430
0 195 1495
0 195 1560
0 195 1625
0 195 1690
0 195 1755
0 195 1820
0 195 1885
0 195 1950
0 195 2015
0 195 2080
0 195 2145
0 195 2210
0 195 2275
0 195 2340
0 195 2405
0 195 2470
0 195 2535
0 195 2600
0 195 2665
0 195 2730
0 195 2795
0 195 2860
0 195 2925
0 195 2990
0 195 3055
0 195 3120
0 195 3185
0 195 3250
0 195 3315
0 195 3380
0 195 3445
0 195 3510
0 195 3575
0 195 3640
0 195 3705
0 195 3770
0 195 3835
0 195 3900
0 195 3965
0 195 4030
0 195 4095
0 260 0
0 260 65
0 260 130
0 260 195
0 260 260
0 260 325
0 260 390
0 260 455
0 260 520
0 260 585
0 260 650
0 260 715
0 260 780
0 260 845
0 260 910
0 260 975
0 260 1040
0 260 1105
0 260 1170
0 260 1235
0 260 1300
0 260 1365
0 260 1430
0 260 1495
0 260 1560
0 260 1625
0 260 1690
0 260 1755
0 260 1820
0 260 1885
0 260 1950
0 260 2015
0 260 2080
0 260 2145
0 260 2210
0 260 2275
0 260 2340
0 260 2405
0 260 2470
0 260 2535
0 260 2600
0 260 2665
0 260 2730
0 260 2795
0 260 2860
0 260 2925
0 260 2990
0 260 3055
0 260 3120
0 260 3185
0 260 3250
0 260 3315
0 260 3380
0 260 3445
0 260 3510
0 260 3575
0 260 3640
0 260 3705
0 260 3770
0 260 3835
0 260 3900
0 260 3965
0 260 4030
0 260 4095
0 325 0
0 325 65
0 325 130
0 325 195
0 325 260
0 325 325
0 325 390
0 325 455
0 325 520
0 325 585
0 325 650
0 325 715
0 325 780
0 325 845
0 325 910
0 325 975
0 325 1040
0 325 1105
0 325 1170
0 325 1235
0 325 1300
0 325 1365
0 325 1430
0 325 1495
0 325 1560
0 325 1625
0 325 1690
0 325 1755
0 325 1820
0 325 1885
0 325 1950
0 325 2015
0 325 2080
0 325 2145
0 325 2210
0 325 2275
0 325 2340
0 325 2405
0 325 2470
0 325 2535
0 325 2600
0 325 2665
0 325 2730
0 325 2795
0 325 2860
0 325 2925
0 325 2990
0 325 3055
0 325 3120
0 325 3185
0 325 3250
0 325 3315
0 325 3380
0 325 3445
0 325 3510
0 325 3575
0 325 3640
0 325 3705
0 325 3770
0 325 3835
0 325 3900
0 325 3965
0 325 4030
0 325 4095
0 390 0
0 390 65
0 390 130
0 390 195
0 390 260
0 390 325
0 390 390
0 390 455
0 390 520
0 390 585
0 390 650
0 390 715
0 390 780
0 390 845
0 390 910
0 390 975
0 390 1040
0 390 1105
0 390 1170
0 390 1235
0 390 1300
0 390 1365
0 390 1430
0 390 1495
0 390 1560
0 390 1625
0 390 1690
0 390 1755
0 390 1820
0 390 1885
0 390 1950
0 390 2015
0 390 2080
0 390 2145
0 390 2210
0 390 2275
0 390 2340
0 390 2405
0 390 2470
0 390 2535
0 390 2600
0 390 2665
0 390 2730
0 390 2795
0 390 2860
0 390 2925
0 390 2990
0 390 3055
0 390 3120
0 390 3185
0 390 3250
0 390 3315
0 390 3380
0 390 3445
0 390 3510
0 390 3575
0 390 3640
0 390 3705
0 390 3770
0 390 3835
0 390 3900
0 390 3965
0 390 4030
0 390 4095
0 455 0
0 455 65
0 455 130
0 455 195
0 455 260
0 455 325
0 455 390
0 455 455
0 455 520
0 455 585
0 455 650
0 455 715
0 455 780
0 455 845
0 455 910
0 455 975
0 455 1040
0 455 1105
0 455 1170
0 455 1235
0 455 1300
0 455 1365
0 455 1430
0 455 1495
0 455 1560
0 455 1625
0 455 1690
0 455 1755
0 455 1820
0 455 1885
0 455 1950
0 455 2015
0 455 2080
0 455 2145
0 455 2210
0 455 2275
0 455 2340
0 455 2405
0 455 2470
0 455 2535
0 455 2600
0 455 2665
0 455 2730
0 455 2795
0 455 2860
0 455 2925
0 455 2990
0 455 3055
0 455 3120
0 455 3185
0 455 3250
0 455 3315
0 455 3380
0 455 3445
0 455 3510
0 455 3575
0 455 3640
0 455 3705
0 455 3770
0 455 3835
0 455 3900
0 455 3965
0 455 4030
0 455 4095
0 520 0
0 520 65
0 520 130
0 520 195
0 520 260
0 520 325
0 520 390
0 520 455
0 520 520
0 520 585
0 520 650
0 520 715
0 520 780
0 520 845
0 520 910
0 520 975
0 520 1040
0 520 1105
0 520 1170
0 520 1235
0 520 1300
0 520 1365
0 520 1430
0 520 1495
0 520 1560
0 520 1625
0 520 1690
0 520 1755
0 520 1820
0 520 1885
0 520 1950
0 520 2015
0 520 2080
0 520 2145
0 520 2210
0 520 2275
0 520 2340
0 520 2405
0 520 2470
0 520 2535
0 520 2600
0 520 2665
0 520 2730
0 520 2795
0 520 2860
0 520 2925
0 520 2990
0 520 3055
0 520 3120
0 520 3185
0 520 3250
0 520 3315
0 520 3380
0 520 3445
0 520 3510
0 520 3575
0 520 3640
0 520 3705
0 520 3770
0 520 3835
0 520 3900
0 520 3965
0 520 4030
0 520 4095
0 585 0
0 585 65
0 585 130
0 585 195
0 585 260
0 585 325
0 585 390
0 585 455
0 585 520
0 585 585
0 585 650
0 585 715
0 585 780
0 585 845
0 585 910
0 585 975
0 585 1040
0 585 1105
0 585 1170
0 585 1235
0 585 1300
0 585 1365
0 585 1430
0 585 1495
0 585 1560
0 585 1625
0 585 1690
0 585 1755
0 585 1820
0 585 1885
0 585 1950
0 585 2015
0 585 2080
0 585 2145
0 585 2210
0 585 2275
0 585 2340
0 585 2405
0 585 2470
0 585 2535
0 585 2600
0 585 2665
0 585 2730
0 585 2795
0 585 2860
0 585 2925
0 585 2990
0 585 3055
0 585 3120
0 585 3185
0 585 3250
0 585 3315
0 585 3380
0 585 3445
0 585 3510
0 585 3575
0 585 3640
0 585 3705
0 585 3770
0 585 3835
0 585 3900
0 585 3965
0 585 4030
0 585 4095
0 650 0
0 650 65
0 650 130
0 650 195
0 650 260
0 650 325
0 650 390
0 650 455
0 650 520
0 650 585
0 650 650
0 650 715
0 650 780
0 650 845
0 650 910
0 650 975
0 650 1040
0 650 1105
0 650 1170
0 650 1235
0 650 1300
0 650 1365
0 650 1430
0 650 1495
0 650 1560
0 650 1625
0 650 1690
0 650 1755
0 650 1820
0 650 1885
0 650 1950
0 650 2015
0 650 2080
0 650 2145
0 650 2210
0 650 2275
0 650 2340
0 650 2405
0 650 2470
0 650 2535
0 650 2600
0 650 2665
0 650 2730
0 650 2795
0 650 2860
0 650 2925
0 650 2990
0 650 3055
0 650 3120
0 650 3185
0 650 3250
0 650 3315
0 650 3380
0 650 3445
0 650 3510
0 650 3575
0 650 3640
0 650 3705
0 650 3770
0 650 3835
0 650 3900
0 650 3965
0 650 4030
0 650 4095
0 715 0
0 715 65
0 715 130
0 715 195
0 715 260
0 715 325
0 715 390
0 715 455
0 715 520
0 715 585
0 715 650
0 715 715
0 715 780
0 715 845
0 715 910
0 715 975
0 715 1040
0 715 1105
0 715 1170
0 715 1235
0 715 1300
0 715 1365
0 715 1430
0 715 1495
0 715 1560
0 715 1625
0 715 1690
0 715 1755
0 715 1820
0 715 1885
0 715 1950
0 715 2015
0 715 2080
0 715 2145
0 715 2210
0 715 2275
0 715 2340
0 715 2405
0 715 2470
0 715 2535
0 715 2600
0 715 2665
0 715 2730
0 715 2795
0 715 2860
0 715 2925
0 715 2990
0 715 3055
0 715 3120
0 715 3185
0 715 3250
0 715 3315
0 715 3380
0 715 3445
0 715 3510
0 715 3575
0 715 3640
0 715 3705
0 715 3770
0 715 3835
0 715 3900
0 715 3965
0 715 4030
0 715 4095
0 780 0
0 780 65
0 780 130
0 780 195
0 780 260
0 780 325
0 780 390
0 780 455
0 780 520
0 780 585
0 780 650
0 780 715
0 780 780
0 780 845
0 780 910
0 780 975
0 780 1040
0 780 1105
0 780 1170
0 780 1235
0 780 1300
0 780 1365
0 780 1430
0 780 1495
0 780 1560
0 780 1625
0 780 1690
0 780 1755
0 780 1820
0 780 1885
0 780 1950
0 780 2015
0 780 2080
0 780 2145
0 780 2210
0 780 2275
0 780 2340
0 780 2405
0 780 2470
0 780 2535
0 780 2600
0 780 2665
0 780 2730
0 780 2795
0 780 2860
0 780 2925
0 780 2990
0 780 3055
0 780 3120
0 780 3185
0 780 3250
0 780 3315
0 780 3380
0 780 3445
0 780 3510
0 780 3575
0 780 3640
0 780 3705
0 780 3770
0 780 3835
0 780 3900
0 780 3965
0 780 4030
0 780 4095
0 845 0
0 845 65
0 845 130
0 845 195
0 845 260
0 845 325
0 845 390
0 845 455
0 845 520
0 845 585
0 845 650
0 845 715
0 845 780
0 845 845
0 845 910
0 845 975
0 845 1040
0 845 1105
0 845 1170
0 845 1235
0 845 1300
0 845 1365
0 845 1430
0 845 1495
0 845 1560
0 845 1625
0 845 1690
0 845 1755
0 845 1820
0 845 1885
0 845 1950
0 845 2015
0 845 2080
0 845 2145
0 845 2210
0 845 2275
0 845 2340
0 845 2405
0 845 2470
0 845 2535
0 845 2600
0 845 2665
0 845 2730
0 845 2795
0 845 2860
0 845 2925
0 845 2990
0 845 3055
0 845 3120
0 845 3185
0 845 3250
0 845 3315
0 845 3380
0 845 3445
0 845 3510
0 845 3575
0 845 3640
0 845 3705
0 845 3770
0 845 3835
0 845 3900
0 845 3965
0 845 4030
0 845 4095
0 910 0
0 910 65
0 910 130
0 910 195
